Numix-Light/16/status/indicator-keyboard-Pa.svg

<?xml version="1.0" encoding="UTF-8" standalone="no"?>
<svg
   xmlns:dc="http://purl.org/dc/elements/1.1/"
   xmlns:cc="http://creativecommons.org/ns#"
   xmlns:rdf="http://www.w3.org/1999/02/22-rdf-syntax-ns#"
   xmlns:svg="http://www.w3.org/2000/svg"
   xmlns="http://www.w3.org/2000/svg"
   xmlns:sodipodi="http://sodipodi.sourceforge.net/DTD/sodipodi-0.dtd"
   xmlns:inkscape="http://www.inkscape.org/namespaces/inkscape"
   viewBox="0 0 16 16"
   id="svg2"
   version="1.1"
   inkscape:version="0.91 r13725"
   sodipodi:docname="indicator-keyboard-Pa.svg">
  <metadata
     id="metadata13">
    <rdf:RDF>
      <cc:Work
         rdf:about="">
        <dc:format>image/svg+xml</dc:format>
        <dc:type
           rdf:resource="http://purl.org/dc/dcmitype/StillImage" />
      </cc:Work>
    </rdf:RDF>
  </metadata>
  <defs
     id="defs11" />
  <sodipodi:namedview
     pagecolor="#ffffff"
     bordercolor="#666666"
     borderopacity="1"
     objecttolerance="10"
     gridtolerance="10"
     guidetolerance="10"
     inkscape:pageopacity="0"
     inkscape:pageshadow="2"
     inkscape:window-width="459"
     inkscape:window-height="369"
     id="namedview9"
     showgrid="false"
     inkscape:zoom="14.75"
     inkscape:cx="8"
     inkscape:cy="8"
     inkscape:window-x="65"
     inkscape:window-y="24"
     inkscape:window-maximized="0"
     inkscape:current-layer="svg2" />
  <path
     style="fill:#353535;fill-opacity:1"
     d="M 1.5996094 0 C 0.71320937 2.9605947e-16 0 0.71320937 0 1.5996094 L 0 14.400391 C 2.9605947e-16 15.286791 0.71320937 16 1.5996094 16 L 14.400391 16 C 15.286791 16 16 15.286791 16 14.400391 L 16 1.5996094 C 16 0.71320937 15.286791 0 14.400391 0 L 1.5996094 0 z M 5.421875 4.8046875 C 6.303875 4.8046875 6.9605781 4.9725938 7.3925781 5.3085938 C 7.8245781 5.6445937 8.0410156 6.1222344 8.0410156 6.7402344 C 8.0410156 7.0942344 7.9775625 7.3964375 7.8515625 7.6484375 C 7.7255625 7.8944375 7.5465 8.0959531 7.3125 8.2519531 C 7.0785 8.4019531 6.7892656 8.5139375 6.4472656 8.5859375 C 6.1112656 8.6519375 5.7306875 8.6835938 5.3046875 8.6835938 L 4.4589844 8.6835938 L 4.4589844 11.095703 L 3.8457031 11.095703 L 3.8457031 4.9765625 C 4.0617031 4.9165625 4.3155156 4.8736094 4.6035156 4.8496094 C 4.8975156 4.8196094 5.169875 4.8046875 5.421875 4.8046875 z M 5.4492188 5.3359375 C 5.2212187 5.3359375 5.0252813 5.3452812 4.8632812 5.3632812 C 4.7072812 5.3752812 4.5729844 5.3864375 4.4589844 5.3984375 L 4.4589844 8.1523438 L 5.2324219 8.1523438 C 5.5624219 8.1523438 5.8590469 8.1356094 6.1230469 8.0996094 C 6.3930469 8.0576094 6.6206406 7.9848125 6.8066406 7.8828125 C 6.9986406 7.7748125 7.1460469 7.6274062 7.2480469 7.4414062 C 7.3500469 7.2554062 7.4023437 7.0184688 7.4023438 6.7304688 C 7.4023438 6.4544687 7.3444688 6.226875 7.2304688 6.046875 C 7.1224688 5.866875 6.9750625 5.7250469 6.7890625 5.6230469 C 6.6090625 5.5150469 6.4019687 5.4404375 6.1679688 5.3984375 C 5.9339687 5.3564375 5.6952188 5.3359375 5.4492188 5.3359375 z M 10.478516 6.3359375 C 10.784516 6.3359375 11.043906 6.3807031 11.253906 6.4707031 C 11.469906 6.5547031 11.643391 6.6740781 11.775391 6.8300781 C 11.907391 6.9800781 12.0025 7.1591406 12.0625 7.3691406 C 12.1225 7.5791406 12.154297 7.8086875 12.154297 8.0546875 L 12.154297 10.988281 C 12.094297 11.006281 12.006578 11.026781 11.892578 11.050781 C 11.778578 11.068781 11.646094 11.089281 11.496094 11.113281 C 11.346094 11.137281 11.178188 11.155969 10.992188 11.167969 C 10.812188 11.185969 10.625594 11.195313 10.433594 11.195312 C 10.187594 11.195312 9.9600001 11.167281 9.75 11.113281 C 9.546 11.059281 9.3669375 10.975328 9.2109375 10.861328 C 9.0609375 10.741328 8.9396094 10.592109 8.8496094 10.412109 C 8.7656094 10.226109 8.7246094 10.000328 8.7246094 9.7363281 C 8.7246094 9.4843281 8.7731406 9.2698438 8.8691406 9.0898438 C 8.9651406 8.9098438 9.0994375 8.7624375 9.2734375 8.6484375 C 9.4474375 8.5284375 9.6545312 8.4407187 9.8945312 8.3867188 C 10.134531 8.3327188 10.395734 8.3066406 10.677734 8.3066406 C 10.761734 8.3066406 10.8475 8.3122187 10.9375 8.3242188 C 11.0335 8.3302187 11.124984 8.341375 11.208984 8.359375 C 11.298984 8.371375 11.373594 8.3862969 11.433594 8.4042969 C 11.499594 8.4162969 11.544359 8.4294063 11.568359 8.4414062 L 11.568359 8.1523438 C 11.568359 7.9903437 11.557203 7.8355469 11.533203 7.6855469 C 11.509203 7.5295469 11.455094 7.3914844 11.371094 7.2714844 C 11.293094 7.1454844 11.179297 7.0466094 11.029297 6.9746094 C 10.885297 6.8966094 10.693125 6.8574219 10.453125 6.8574219 C 10.111125 6.8574219 9.8555 6.8816875 9.6875 6.9296875 C 9.5195 6.9776875 9.3963594 7.016875 9.3183594 7.046875 L 9.2382812 6.5332031 C 9.3402813 6.4852031 9.4950781 6.4404375 9.7050781 6.3984375 C 9.9210782 6.3564375 10.178516 6.3359375 10.478516 6.3359375 z M 10.660156 8.8105469 C 10.516156 8.8105469 10.364984 8.8217031 10.208984 8.8457031 C 10.052984 8.8637031 9.9093437 8.9084687 9.7773438 8.9804688 C 9.6453438 9.0464687 9.537125 9.1397656 9.453125 9.2597656 C 9.369125 9.3797656 9.328125 9.5383281 9.328125 9.7363281 C 9.328125 9.9103281 9.3542031 10.057734 9.4082031 10.177734 C 9.4682031 10.297734 9.5503438 10.394797 9.6523438 10.466797 C 9.7603438 10.538797 9.8852968 10.592906 10.029297 10.628906 C 10.179297 10.658906 10.347203 10.673828 10.533203 10.673828 C 10.761203 10.673828 10.958953 10.666297 11.126953 10.654297 C 11.300953 10.636297 11.448359 10.615797 11.568359 10.591797 L 11.568359 8.953125 C 11.502359 8.923125 11.397906 8.8932813 11.253906 8.8632812 C 11.109906 8.8272813 10.912156 8.8105469 10.660156 8.8105469 z "
     id="path4" />
</svg>

<svg xmlns="http://www.w3.org/2000/svg" viewBox="0 0 16 16">
 <path d="m 1.6 0 c -0.886 0 -1.6 0.713 -1.6 1.6 l 0 12.801 c 0 0.886 0.713 1.6 1.6 1.6 l 12.801 0 c 0.886 0 1.6 -0.713 1.6 -1.6 l 0 -12.801 c 0 -0.886 -0.713 -1.6 -1.6 -1.6 l -12.801 0 z m 3.822 4.805 c 0.882 0 1.539 0.168 1.971 0.504 c 0.432 0.336 0.648 0.814 0.648 1.432 c 0 0.354 -0.063 0.656 -0.189 0.908 c -0.126 0.246 -0.305 0.448 -0.539 0.604 c -0.234 0.15 -0.523 0.262 -0.865 0.334 c -0.336 0.066 -0.717 0.098 -1.143 0.098 l -0.846 0 l 0 2.412 l -0.613 0 l 0 -6.119 c 0.216 -0.06 0.47 -0.103 0.758 -0.127 c 0.294 -0.03 0.566 -0.045 0.818 -0.045 z m 0.027 0.531 c -0.228 0 -0.424 0.009 -0.586 0.027 c -0.156 0.012 -0.29 0.023 -0.404 0.035 l 0 2.754 l 0.773 0 c 0.33 0 0.627 -0.017 0.891 -0.053 c 0.27 -0.042 0.498 -0.115 0.684 -0.217 c 0.192 -0.108 0.339 -0.255 0.441 -0.441 c 0.102 -0.186 0.154 -0.423 0.154 -0.711 c 0 -0.276 -0.058 -0.504 -0.172 -0.684 c -0.108 -0.18 -0.255 -0.322 -0.441 -0.424 c -0.18 -0.108 -0.387 -0.183 -0.621 -0.225 c -0.234 -0.042 -0.473 -0.063 -0.719 -0.063 z m 5.03 1 c 0.306 0 0.565 0.045 0.775 0.135 c 0.216 0.084 0.389 0.203 0.521 0.359 c 0.132 0.15 0.227 0.329 0.287 0.539 c 0.06 0.21 0.092 0.44 0.092 0.686 l 0 2.934 c -0.06 0.018 -0.148 0.038 -0.262 0.063 c -0.114 0.018 -0.246 0.038 -0.396 0.063 c -0.15 0.024 -0.318 0.043 -0.504 0.055 c -0.18 0.018 -0.367 0.027 -0.559 0.027 c -0.246 0 -0.474 -0.028 -0.684 -0.082 c -0.204 -0.054 -0.383 -0.138 -0.539 -0.252 c -0.15 -0.12 -0.271 -0.269 -0.361 -0.449 c -0.084 -0.186 -0.125 -0.412 -0.125 -0.676 c 0 -0.252 0.049 -0.466 0.145 -0.646 c 0.096 -0.18 0.23 -0.327 0.404 -0.441 c 0.174 -0.12 0.381 -0.208 0.621 -0.262 c 0.24 -0.054 0.501 -0.08 0.783 -0.08 c 0.084 0 0.17 0.006 0.26 0.018 c 0.096 0.006 0.187 0.017 0.271 0.035 c 0.09 0.012 0.165 0.027 0.225 0.045 c 0.066 0.012 0.111 0.025 0.135 0.037 l 0 -0.289 c 0 -0.162 -0.011 -0.317 -0.035 -0.467 c -0.024 -0.156 -0.078 -0.294 -0.162 -0.414 c -0.078 -0.126 -0.192 -0.225 -0.342 -0.297 c -0.144 -0.078 -0.336 -0.117 -0.576 -0.117 c -0.342 0 -0.598 0.024 -0.766 0.072 c -0.168 0.048 -0.291 0.087 -0.369 0.117 l -0.08 -0.514 c 0.102 -0.048 0.257 -0.093 0.467 -0.135 c 0.216 -0.042 0.473 -0.063 0.773 -0.063 z m 0.182 2.475 c -0.144 0 -0.295 0.011 -0.451 0.035 c -0.156 0.018 -0.3 0.063 -0.432 0.135 c -0.132 0.066 -0.24 0.159 -0.324 0.279 c -0.084 0.12 -0.125 0.279 -0.125 0.477 c 0 0.174 0.026 0.321 0.08 0.441 c 0.06 0.12 0.142 0.217 0.244 0.289 c 0.108 0.072 0.233 0.126 0.377 0.162 c 0.15 0.03 0.318 0.045 0.504 0.045 c 0.228 0 0.426 -0.008 0.594 -0.02 c 0.174 -0.018 0.321 -0.038 0.441 -0.063 l 0 -1.639 c -0.066 -0.03 -0.17 -0.06 -0.314 -0.09 c -0.144 -0.036 -0.342 -0.053 -0.594 -0.053 z" style="fill:#353535;fill-opacity:1"/>
</svg>
